NAME Exemple02.svg
COLOR RED 0 GREEN (50+15)*2 BLUE 20+3
SCALE 3
REPEAT 2+2 [FORWARD 50*2 LEFT 40+50]
SCALE 1
HIDE 1
LEFT 90
FORWARD 20
LEFT 90
FORWARD 2*40
HIDE 0
COLOR RED 0 GREEN 0 BLUE 0
REPEAT 180 [
  COLOR RED +2
  FORWARD 2 RIGHT 1
]
REPEAT 180 [
  COLOR RED -2
  FORWARD 2 RIGHT 1
]
