NAME centered.svg
RECT a=(b=100) a

HIDE
REPEAT 2 [
	LEFT 90
	FORWARD b/2
]
RIGHT 180
SHOW
RED +30
RECT a=a+b a

HIDE
REPEAT 2 [
	LEFT 90
	FORWARD b/2
]
RIGHT 180
SHOW
RED +30
RECT a=a+b a

HIDE
REPEAT 2 [
	LEFT 90
	FORWARD b/2
]
RIGHT 180
SHOW
RED +30
RECT a=a+b a

HIDE
REPEAT 2 [
	LEFT 90
	FORWARD b/2
]
RIGHT 180
SHOW
RED +30
RECT a=a+b a

HIDE
REPEAT 2 [
	LEFT 90
	FORWARD b/2
]
RIGHT 180
SHOW
RED +30
RECT a=a+b a

HIDE
REPEAT 2 [
	LEFT 90
	FORWARD b/2
]
RIGHT 180
SHOW
RED +30
RECT a=a+b a

HIDE
REPEAT 2 [
	LEFT 90
	FORWARD b/2
]
RIGHT 180
SHOW
RED +30
RECT a=a+b a

HIDE
REPEAT 2 [
	LEFT 90
	FORWARD b/2
]
RIGHT 180
SHOW
RED +30
RECT a=a+b a

HIDE
REPEAT 2 [
	LEFT 90
	FORWARD b/2
]
RIGHT 180
SHOW
RED +30
RECT a=a+b a

HIDE
REPEAT 2 [
	LEFT 90
	FORWARD b/2
]
RIGHT 180
SHOW
RED +30
RECT a=a+b a
