NAME Exemple02.svg
COLOR RED 0 GREEN (50+15)*2 BLUE 20+3
SCALE 3
REPEAT 2+2 [FORWARD 50*2 LEFT 40+50]
SCALE 1
HIDE
LEFT 45*2
FORWARD (1+1)*10
LEFT 2*45
FORWARD 2*40
SHOW
COLOR RED 0*100 GREEN 0 BLUE 0
REPEAT 100+80 [
  COLOR RED DELTA 2
  FORWARD 2 RIGHT 1
]
REPEAT 200-20 [
  COLOR RED DELTA -2*-(-1-1)/(1+1)
  FORWARD 2 RIGHT 1
]