NAME Exemple01.svg
COLOR RED 0 GREEN 130 BLUE 23
SCALE 3
REPEAT 4 [FORWARD 100 LEFT 90]
SCALE 1
HIDE
LEFT 90
FORWARD 20
LEFT 90
FORWARD 80
SHOW
COLOR RED 0 GREEN 0 BLUE 0
REPEAT 180 [
  COLOR RED DELTA 2
  FORWARD 2 RIGHT 1
]
REPEAT 180 [
  COLOR RED DELTA -2
  FORWARD 2 RIGHT 1
]
