NAME exemple.svg
COLOR RED 100 GREEN 130 BLUE 23
REPEAT 4 [FORWARD 50 LEFT 90]
HIDE 1
LEFT 90
FORWARD 10
LEFT 90
FORWARD 40
HIDE 0
COLOR RED 0 GREEN 0 BLUE 0
REPEAT 180 [
  COLOR RED +2
  FORWARD 1 RIGHT 1
]
REPEAT 180 [
  COLOR RED -2
  FORWARD 1 RIGHT 1
]
