NAME exemple.svg
COLOR RED 0 GREEN 130 BLUE 23
REPEAT 4 [FORWARD 100 LEFT 90]
HIDE 1
LEFT 90
FORWARD 20
LEFT 90
FORWARD 80
HIDE 0
COLOR RED 0 GREEN 0 BLUE 0
REPEAT 180 [
  COLOR RED +2
  FORWARD 2 RIGHT 1
]
REPEAT 180 [
  COLOR RED -2
  FORWARD 2 RIGHT 1
]
